X: 100324
M: C|
L: 1/8
K: Gm
uF |\
f>ed<f c<fA>F | A<fd>B ({AB}c>A)G2 :|
d<g(g>a) (=f>g) {fg}a>f | d(g/a/ b>g) (a>^f)g2 |
=f>ed<f c<fA>F | D<G(G>A) (B>G)A>a |\
{fg}(.a>.g) (f>d) {AB}(.c>.B) (A>F) | A<f d>B {AB}(c>A) "_Segue Reel"A2 "^D.C."|]


